X:1
T:John Curtis
M:6/8
L:1/8
K:F
 C| A2 A A2 G| F A2- A z A| c2 c d2 A| B3- B z B/2B/2| c2 c B2 A| A G2- G z A|\
 BB A- A2 G| F3- F z A| A2 B A2 G| F A2- A2 A| c d2- d2 A| B3- B z B/2B/2|\
 cc B- B2 A| AGG-G z A| B B2 A G2| F3 z2||
